X: 10971
T: Drunk Begonias
R: jig
M: 6/8
K: Bminor
|:b2f fef|gab agf|b2f fef|gfe cde|
b2f fef|gab agf|bff aff|gec B3:|
|:A2d dcd|efd edc|A2d dcd|efg a3|
A2d dcd|efd ef/g/a|bff gee|cdc B3:|

